X:1
T: Walmer Castle
N:
C:
S:Play  3  times
A:
O:
R:
M:4/4
K:A
I:speed 200
%W: A1
% voice 1 (1 lines, 41 notes)
K:A
M:4/4
L:1/16
A4 A2 B2 c4 c4 |B4 B2 c2 d4 d4 |c4 A4 F4 B4 |A2 G2 F2 G2 E4 F2 G2 |A4 A2 B2 c4 c4 |B4 B2 c2 d4 d4 |d2 c2 B2 A2 G2 A2 B2 G2 |A8 A8 |
%W: A2
% voice 1 (1 lines, 41 notes)
A4 A2 B2 c4 c4 |B4 B2 c2 d4 d4 |c4 A4 F4 B4 |A2 G2 F2 G2 E4 F2 G2 |A4 A2 B2 c4 c4 |B4 B2 c2 d4 d4 |d2 c2 B2 A2 G2 A2 B2 G2 |A8 A8 |
%W: B1
% voice 1 (1 lines, 31 notes)
c4 A4 e4 d4 |B4 G4 e4 e4 |f4 g4 a4 f4 |^d4 B4 B8 |c4 A4 e4 e4 |B4 G4 e4 e4 |^d4 a4 f4 d4 |e4 c4 d4 B4 |
%W: B2
% voice 1 (1 lines, 41 notes)
A4 A2 B2 c4 c4 |B4 B2 c2 d4 d4 |c4 A4 F4 B4 |A2 G2 F2 G2 E4 F2 G2 |A4 A2 B2 c4 c4 |B4 B2 c2 d4 d4 |d2 c2 B2 A2 G2 A2 B2 G2 |A8 A8 ||
